layouts/icon-pack/spell_shock_strong.svg

<?xml version="1.0" encoding="UTF-8"?>
<svg width="1200pt" height="1200pt" version="1.1" viewBox="0 0 1200 1200" xmlns="http://www.w3.org/2000/svg">
 <g fill="#fff">
  <path d="m1129.5 541.69c-4.5703-27.68-15.609-90.516-29.555-142.27-0.95703-3.5-4.2383-5.8516-7.8594-5.6289-3.6211 0.22266-6.5938 2.9531-7.1172 6.543-4.1016 29.273-10.406 71.086-16.852 101.88-3.4805 16.582-14.109 30.777-29.039 38.789-20.25 10.922-51.047 26.109-79.688 34.617-3.3672 0.97656-7 0.17578-9.6445-2.1289-2.6445-2.3008-3.9375-5.793-3.4336-9.2617 8.3438-57.305 39.047-262.5 68.836-386.72 1.125-4.8594-1.2695-9.8477-5.7656-12.012-4.4961-2.1641-9.8867-0.92188-12.984 2.9883-13.781 17.672-29.883 37.758-45.023 54.164-4.4883 4.8672-10.367 8.2383-16.836 9.6484-6.4688 1.4141-13.219 0.80078-19.328-1.75l-364.48-151.78c-7.2148-3.0078-15.281-3.25-22.664-0.67969-23.016 8.0391-78.117 25.781-134.74 31.57-5.3359 0.51563-10.34 2.8203-14.203 6.5391l-56.695 54.891c-5.1719 5.0117-7.8516 12.062-7.3125 19.242 1.0312 13.688 3.1172 38.766 6.4219 69.938 0.49609 4.7383 4.2344 8.4844 8.9688 8.9922 4.7344 0.50781 9.1797-2.3594 10.672-6.8828 14.32-43.852 45.773-94.617 114.54-93.75 4.4297 0.039063 8.4883 2.4883 10.59 6.3906 2.0977 3.9062 1.9023 8.6406-0.51172 12.359-50.883 76.688-259.99 391.52-345 516.68-2.875 4.25-4.3242 9.3008-4.1406 14.43 0.1875 5.1289 1.9961 10.062 5.1719 14.094v0.14062c10.379 13.016 16.879 28.691 18.75 45.234 1.6797 14.949 1.625 30.039-0.16406 44.977-2.3164 16.422-7.5547 32.297-15.469 46.875-7.0312 13.359-17.648 45.703 10.57 90.398 25.43 40.242 77.344 48.305 108.33 49.219 20.715 0.53516 41.082 5.4727 59.742 14.484l0.98438 0.49219c24.969 12.352 45.844 31.648 60.117 55.57 6.25 10.547 12.406 21.07 18.469 31.57 2.4609 4.2852 6.1797 7.7109 10.652 9.8086 4.4766 2.0938 9.4883 2.7617 14.355 1.9102 42.188-7.3359 155.23-25.992 228.8-29.344 7.5195-0.34375 15-1.25 22.383-2.7188 54.523-10.629 109.73-17.363 165.21-20.156 2.4961-0.16406 4.4609-2.1992 4.5352-4.6992 0.074219-2.5039-1.7695-4.6484-4.2539-4.957-109.76-11.039-292.22-31.078-379.41-50.32-5.0742-1.0547-9.1562-4.8125-10.625-9.7773-1.4688-4.9688-0.089843-10.344 3.5938-13.988 20.484-20.977 62.484-50.953 128.6-39.445 0 0 34.242 5.8828 63.07 43.711 3.3711 4.5312 9.25 6.4141 14.625 4.6875 15.938-5.1562 49.945-16.195 80.25-25.922 2.043-0.65625 3.2812-2.7305 2.8906-4.8398-0.39453-2.1133-2.293-3.6016-4.4375-3.4805-25.406 1.4062-57.516 1.3125-77.156-5.6016 0 0-47.32-42.445-73.594-73.172-2.8945-3.3906-6.8008-5.7578-11.145-6.75-4.3477-0.99219-8.8945-0.55469-12.973 1.2422-31.43 13.734-109.34 37.969-174.3-22.008-61.664-56.906-97.664-153.52-112.27-200.2-2.5039-8.0273-2.7305-16.59-0.66406-24.742 2.0703-8.1484 6.3555-15.566 12.383-21.43 27.562-26.93 79.688-75.398 123.61-102.07 3.5547-2.1758 7.793-2.9531 11.887-2.1797 4.0977 0.76953 7.7617 3.0312 10.285 6.3477 2.5234 3.3164 3.7266 7.4531 3.375 11.605-1.9688 24.68-8.1094 60.492-26.133 89.344-3.2734 5.1758-8.2461 9.0547-14.062 10.969-15.16 5.0664-30.891 8.2383-46.828 9.4453-1.2734 0.09375-2.3281 1.0273-2.5742 2.2812s0.375 2.5156 1.5195 3.0859c21.875 10.566 45.164 17.906 69.141 21.797 9.9258 1.5078 20.055-0.83984 28.305-6.5625 8.25-5.7227 13.996-14.387 16.062-24.211 13.078-62.719 53.906-202.17 167.27-270.96 10.949-6.582 24.363-7.6055 36.188-2.7656 23.742 9.6094 65.812 27.68 96.375 46.664 11.508 7.1914 19.031 19.309 20.367 32.812 3.375 33.609 9.0703 103.38 5.9062 165.68-0.26172 4.9062-3.125 9.2969-7.5078 11.516-4.3828 2.2227-9.6172 1.9336-13.727-0.75781-22.406-14.602-60.938-38.203-99.094-53.906-3.6523-1.5508-7.8711-0.83594-10.805 1.8359-2.9336 2.6719-4.043 6.8047-2.8359 10.586 9.7266 30.141 26.156 89.062 25.781 142.5-0.070313 11.438 4.3984 22.438 12.422 30.586 23.438 23.648 72.656 73.008 104.06 101.06 2.957 2.6562 6.8477 4.0391 10.816 3.8438 3.9727-0.19141 7.707-1.9453 10.395-4.875 40.5-43.969 197.11-210.02 315.49-279.89 3.6797-2.1094 6.625-5.2969 8.4336-9.1289 1.8125-3.8359 2.4023-8.1367 1.6914-12.316zm-857.67 406.9c1.3125 2.2891 1.0938 5.1484-0.54688 7.2148-1.6445 2.0664-4.3789 2.9219-6.9062 2.1602-18.082-5.6289-36.75-9.1445-55.641-10.477-13.738-0.91797-26.359-7.8906-34.453-19.031-6.5234-8.8008-8.7109-20.078-5.9531-30.68 6.5859-26.367 23.438-41.883 27.211-61.898 0.29687-1.7539 1.6562-3.1406 3.4062-3.4766 1.75-0.33203 3.5195 0.45312 4.4453 1.9766z"/>
  <path d="m1095.9 293.72c0.6875 13.574-6.582 24.977-16.238 25.465s-18.043-10.117-18.73-23.691c-0.6875-13.574 6.582-24.977 16.238-25.465 9.6602-0.48828 18.043 10.117 18.73 23.691"/>
  <path d="m845.67 978.16c24.402 8.793 47.633 20.555 69.164 35.016 3.0977 2.1406 6.8242 3.1758 10.582 2.9453 3.7578-0.23438 7.3281-1.7266 10.137-4.2344 22.266-20.016 78.938-68.086 135.07-92.367 2.4023-1.0273 3.75-3.6055 3.2266-6.1641-0.52344-2.5586-2.7695-4.3984-5.3828-4.4062-23.766 0.11719-56.438 0.82031-82.031 3.5156-4.6094 0.48438-8.9023 2.5664-12.141 5.8828-11.555 11.719-41.812 40.57-63.656 42.562-21.113-1-42.27-0.34766-63.281 1.9453-3.625 0.46875-6.4609 3.3555-6.8633 6.9883-0.39844 3.6328 1.7383 7.0703 5.1758 8.3164z"/>
  <path d="m393.09 738.66c-2.9609 8.3828-3.3438 17.461-1.1016 26.062 1.8945 6.3438 5.5742 12.012 10.598 16.324 5.0234 4.3125 11.18 7.0898 17.738 8.0039 29.082 4.4531 57.188 13.863 83.086 27.82 2.1562 1.2148 4.8633 0.80859 6.5742-0.98047 1.707-1.793 1.9844-4.5156 0.66797-6.6133l-21.094-33.844c-4.0195-6.3594-10.191-11.059-17.391-13.242-8.2734-2.5781-19.008-8.2734-22.594-20.789 0 0-6.3047-22.43-36.539-18.75-4.5 0.50781-8.7617 2.2812-12.289 5.1172-3.5312 2.832-6.1875 6.6094-7.6562 10.891z"/>
  <path d="m270.35 406.71-166.41 233.58c-2.043 2.8086-5.4688 4.2578-8.9102 3.7695-3.4375-0.49219-6.3203-2.8438-7.4961-6.1133l-15.586-44.531c-1.25-3.5703-1.8945-7.3242-1.8984-11.109v-99.492c0.019531-3.0508 1.9492-5.7656 4.8242-6.7852 2.8789-1.0156 6.0859-0.12109 8.0195 2.2383 10.008 12.047 25.781 25.406 46.875 26.297 14.523 0.39844 28.555-5.2734 38.719-15.656l91.406-90.938c2.4141-2.8867 6.7109-3.2695 9.5977-0.85547 2.8867 2.4141 3.2695 6.7109 0.85547 9.5977z"/>
 </g>
</svg>

<?xml version="1.0" encoding="UTF-8" standalone="no"?>
<!DOCTYPE svg PUBLIC "-//W3C//DTD SVG 1.1//EN" "http://www.w3.org/Graphics/SVG/1.1/DTD/svg11.dtd">
<svg width="100%" height="100%" viewBox="0 0 512 506" version="1.1" xmlns="http://www.w3.org/2000/svg" xmlns:xlink="http://www.w3.org/1999/xlink" xml:space="preserve" xmlns:serif="http://www.serif.com/" style="fill-rule:evenodd;clip-rule:evenodd;stroke-linejoin:round;stroke-miterlimit:2;">
    <g transform="matrix(1,0,0,1,-70.0493,-76.3223)">
        <g transform="matrix(0.48314,0,0,0.48314,36.2057,39.4479)">
            <path d="M1129.5,541.69C1124.93,514.01 1113.89,451.174 1099.94,399.42C1098.99,395.92 1095.71,393.568 1092.09,393.791C1088.46,394.014 1085.49,396.744 1084.97,400.334C1080.87,429.607 1074.56,471.42 1068.12,502.214C1064.64,518.796 1054.01,532.991 1039.08,541.003C1018.83,551.925 988.03,567.112 959.389,575.62C956.022,576.597 952.389,575.796 949.745,573.491C947.1,571.19 945.807,567.698 946.311,564.23C954.655,506.925 985.358,301.73 1015.15,177.51C1016.27,172.65 1013.88,167.662 1009.38,165.498C1004.89,163.333 999.495,164.576 996.398,168.486C982.617,186.158 966.515,206.244 951.375,222.65C946.886,227.517 941.008,230.888 934.539,232.298C928.07,233.712 921.32,233.099 915.211,230.548L550.731,78.768C543.516,75.76 535.45,75.518 528.067,78.089C505.051,86.128 449.95,103.87 393.327,109.659C387.991,110.174 382.987,112.479 379.124,116.198L322.429,171.089C317.257,176.1 314.577,183.151 315.116,190.331C316.147,204.019 318.233,229.097 321.538,260.269C322.034,265.007 325.773,268.753 330.507,269.261C335.241,269.769 339.687,266.901 341.179,262.378C355.499,218.526 386.952,167.761 455.719,168.628C460.149,168.667 464.207,171.116 466.309,175.019C468.407,178.925 468.211,183.659 465.797,187.378C414.914,264.066 205.807,578.898 120.797,704.058C117.922,708.308 116.473,713.358 116.657,718.488C116.844,723.617 118.653,728.55 121.828,732.582L121.828,732.722C132.207,745.738 138.707,761.413 140.578,777.956C142.258,792.905 142.203,807.995 140.414,822.933C138.098,839.355 132.86,855.23 124.945,869.808C117.914,883.167 107.297,915.511 135.515,960.206C160.945,1000.45 212.859,1008.51 243.845,1009.43C264.56,1009.96 284.927,1014.9 303.587,1023.91L304.572,1024.4C329.541,1036.75 350.416,1056.05 364.689,1079.97C370.939,1090.52 377.095,1101.04 383.158,1111.54C385.619,1115.83 389.337,1119.25 393.81,1121.35C398.286,1123.44 403.298,1124.11 408.165,1123.26C450.353,1115.92 563.395,1097.27 636.965,1093.92C644.484,1093.57 651.965,1092.67 659.348,1091.2C713.871,1080.57 769.078,1073.83 824.558,1071.04C827.054,1070.88 829.019,1068.84 829.093,1066.34C829.167,1063.84 827.324,1061.69 824.839,1061.38C715.079,1050.35 532.619,1030.31 445.429,1011.07C440.355,1010.01 436.273,1006.25 434.804,1001.29C433.335,996.319 434.714,990.944 438.398,987.3C458.882,966.323 500.882,936.347 566.998,947.855C566.998,947.855 601.24,953.738 630.068,991.566C633.439,996.097 639.318,997.98 644.693,996.253C660.631,991.097 694.638,980.058 724.943,970.331C726.986,969.675 728.224,967.601 727.834,965.492C727.439,963.378 725.54,961.89 723.396,962.011C697.99,963.417 665.88,963.324 646.24,956.41C646.24,956.41 598.92,913.965 572.646,883.238C569.752,879.847 565.845,877.48 561.501,876.488C557.153,875.495 552.607,875.933 548.528,877.73C517.098,891.464 439.188,915.699 374.228,855.722C312.564,798.816 276.564,702.202 261.958,655.522C259.454,647.494 259.228,638.932 261.294,630.78C263.364,622.631 267.649,615.214 273.677,609.35C301.239,582.42 353.365,533.952 397.287,507.28C400.842,505.104 405.08,504.327 409.174,505.1C413.272,505.87 416.936,508.131 419.459,511.448C421.982,514.764 423.186,518.901 422.834,523.053C420.865,547.733 414.725,583.545 396.701,612.397C393.428,617.573 388.455,621.451 382.639,623.366C367.479,628.432 351.748,631.604 335.811,632.811C334.538,632.905 333.483,633.838 333.237,635.092C332.991,636.346 333.612,637.608 334.756,638.178C356.631,648.744 379.92,656.084 403.897,659.975C413.823,661.483 423.952,659.135 432.202,653.413C440.452,647.69 446.198,639.026 448.264,629.202C461.342,566.483 502.17,427.032 615.534,358.242C626.483,351.66 639.897,350.636 651.722,355.476C675.464,365.085 717.534,383.156 748.097,402.14C759.605,409.331 767.128,421.449 768.464,434.952C771.839,468.561 777.535,538.332 774.37,600.632C774.109,605.538 771.245,609.929 766.863,612.148C762.48,614.371 757.245,614.082 753.136,611.39C730.73,596.788 692.198,573.187 654.042,557.484C650.389,555.933 646.171,556.648 643.237,559.32C640.303,561.992 639.194,566.125 640.401,569.906C650.127,600.047 666.557,658.968 666.182,712.406C666.111,723.844 670.58,734.844 678.604,742.992C702.042,766.64 751.26,816 782.664,844.052C785.621,846.708 789.511,848.091 793.48,847.896C797.452,847.705 801.187,845.951 803.875,843.021C844.375,799.052 1000.99,633.001 1119.37,563.131C1123.04,561.022 1125.99,557.834 1127.8,554.002C1129.61,550.166 1130.2,545.865 1129.49,541.686L1129.5,541.69ZM271.83,948.59C273.143,950.879 272.924,953.738 271.283,955.805C269.639,957.871 266.904,958.727 264.377,957.965C246.295,952.336 227.627,948.821 208.736,947.488C194.998,946.57 182.377,939.597 174.283,928.457C167.76,919.656 165.572,908.379 168.33,897.777C174.916,871.41 191.768,855.894 195.541,835.879C195.838,834.125 197.197,832.738 198.947,832.402C200.697,832.07 202.467,832.856 203.392,834.379L271.83,948.59Z" style="fill:white;fill-rule:nonzero;"/>
            <path d="M1095.9,293.72C1096.59,307.294 1089.32,318.697 1079.66,319.185C1070.01,319.673 1061.62,309.068 1060.93,295.494C1060.25,281.92 1067.51,270.517 1077.17,270.029C1086.83,269.541 1095.21,280.146 1095.9,293.72" style="fill:white;fill-rule:nonzero;"/>
            <path d="M845.67,978.16C870.072,986.953 893.303,998.715 914.834,1013.18C917.932,1015.32 921.658,1016.35 925.416,1016.12C929.174,1015.89 932.744,1014.39 935.553,1011.89C957.819,991.871 1014.49,943.801 1070.62,919.52C1073.03,918.493 1074.37,915.914 1073.85,913.356C1073.33,910.797 1071.08,908.957 1068.47,908.95C1044.7,909.067 1012.03,909.77 986.436,912.465C981.826,912.95 977.533,915.032 974.295,918.348C962.74,930.067 932.483,958.918 910.639,960.91C889.526,959.91 868.369,960.562 847.358,962.855C843.733,963.324 840.897,966.211 840.494,969.844C840.096,973.476 842.233,976.914 845.67,978.16L845.67,978.16Z" style="fill:white;fill-rule:nonzero;"/>
            <path d="M393.09,738.66C390.129,747.043 389.746,756.121 391.988,764.722C393.883,771.066 397.563,776.734 402.586,781.046C407.61,785.358 413.766,788.136 420.324,789.05C449.406,793.503 477.512,802.913 503.41,816.87C505.567,818.085 508.274,817.678 509.985,815.889C511.692,814.096 511.969,811.374 510.653,809.276L489.559,775.432C485.539,769.073 479.368,764.373 472.168,762.19C463.894,759.612 453.16,753.917 449.574,741.401C449.574,741.401 443.269,718.971 413.035,722.651C408.535,723.159 404.273,724.932 400.746,727.768C397.214,730.6 394.558,734.378 393.089,738.659L393.09,738.66Z" style="fill:white;fill-rule:nonzero;"/>
            <path d="M270.35,406.71L103.94,640.29C101.897,643.099 98.471,644.548 95.03,644.06C91.592,643.567 88.71,641.216 87.534,637.946L71.948,593.415C70.698,589.845 70.053,586.091 70.049,582.306L70.049,482.814C70.069,479.763 71.999,477.049 74.874,476.029C77.752,475.013 80.959,475.908 82.893,478.267C92.901,490.314 108.674,503.673 129.768,504.564C144.291,504.963 158.323,499.291 168.487,488.908L259.893,397.97C262.307,395.084 266.604,394.701 269.491,397.115C272.377,399.529 272.76,403.826 270.346,406.713L270.35,406.71Z" style="fill:white;fill-rule:nonzero;"/>
        </g>
    </g>
</svg>
